X: 33167
T: Prinz Peter Bei Den Schweinen
R: polka
M: 2/4
K: Cmajor
|:c2e/d/e/f/|gedf|ecBc|d/c/B/A/G2|c2e/d/e/f/|gedf|ecd/c/B|Bcc2:|
|:Gggf/e/|fdd2|Gffe/d/|ecc2|c2e/d/e/f/|gedf|ecd/c/B|Bcc2:|

